assets/Key/Flat/key_flat.svg

<svg width="32" height="32" viewBox="0 0 32 32" fill="none" xmlns="http://www.w3.org/2000/svg">
<path d="M16.2483 4.52616C18.9098 1.83682 23.1163 1.14182 26.2861 3.18653C30.7219 6.03703 31.1805 12.1208 27.6817 15.6562C25.3721 17.9958 21.9577 18.5834 19.0921 17.421C17.6761 18.8362 15.9246 20.5894 15.5 21.0254C15.29 21.2354 14.92 21.3454 14.58 21.2454C14.17 21.1254 13.74 21.1254 13.28 21.2754C12.75 21.4554 12.39 22.0854 12.41 22.3755C12.45 23.0054 12.35 23.2754 12.07 23.5654C11.7883 23.861 11.4895 23.8921 11.1766 23.9247C10.812 23.9626 10.4282 24.0026 10.03 24.4655C9.62999 24.9354 9.55999 25.6454 9.69999 26.1754C9.77999 26.4854 9.67999 26.8554 9.39999 27.1354C8.89999 27.6354 7.54046 28.975 7.54046 28.975C6.51046 30.005 4.89046 30.315 3.63046 29.585C1.72046 28.485 1.49046 25.975 2.93046 24.535L14.6195 12.8546C14.5156 12.6025 14.4204 12.3411 14.3345 12.0704C13.4872 9.4113 14.2946 6.50036 16.2483 4.52616ZM23.8838 5.82551C23.1661 6.55073 23.1661 7.73927 23.8838 8.46449C24.6115 9.18971 25.7778 9.18971 26.4955 8.46449C27.2132 7.73927 27.2132 6.55073 26.4955 5.82551C25.7778 5.10029 24.6015 5.10029 23.8838 5.82551Z" fill="#F9C23C"/>
</svg>

<svg xmlns="http://www.w3.org/2000/svg" width="32" height="32" fill="none"><path fill="#F9C23C" d="M16.248 4.526c2.662-2.69 6.868-3.384 10.038-1.34 4.436 2.851 4.894 8.935 1.396 12.47-2.31 2.34-5.724 2.927-8.59 1.765a751.035 751.035 0 0 0-3.592 3.604.96.96 0 0 1-.92.22c-.41-.12-.84-.12-1.3.03-.53.18-.89.81-.87 1.1.04.63-.06.9-.34 1.19-.282.296-.58.327-.893.36-.365.038-.749.078-1.147.54-.4.47-.47 1.18-.33 1.71.08.31-.02.68-.3.96-.5.5-1.86 1.84-1.86 1.84-1.03 1.03-2.65 1.34-3.91.61a3.205 3.205 0 0 1-.7-5.05l11.69-11.68a9.976 9.976 0 0 1-.285-.785c-.848-2.659-.04-5.57 1.913-7.544Zm7.636 1.3a1.886 1.886 0 0 0 0 2.638 1.84 1.84 0 0 0 2.611 0 1.886 1.886 0 0 0 0-2.638 1.84 1.84 0 0 0-2.611 0Z"/></svg>
